static/icons/Chat-2.svg

<svg height="110" width="110" xmlns="http://www.w3.org/2000/svg"><circle cx="55" cy="55" fill="#25b7d3" r="55"/><path d="m39 67a4 4 0 0 0 4 4h24l12 12v-12h4a4 4 0 0 0 4-4v-32a4 4 0 0 0 -4-4h-40a4 4 0 0 0 -4 4z" fill="#6fdaf1"/><path d="m71 59a4 4 0 0 1 -4 4h-24l-12 12v-12h-4a4 4 0 0 1 -4-4v-32a4 4 0 0 1 4-4h40a4 4 0 0 1 4 4z" fill="#f0f1f1"/><path d="m70.335 24.798a3.99 3.99 0 0 0 -3.335-1.798h-40a4 4 0 0 0 -4 4v32a4 4 0 0 0 4 4h4v1.134z" fill="#fff"/><g fill="#21b2d1"><circle cx="35" cy="43" r="4"/><circle cx="47" cy="43" r="4"/><circle cx="59" cy="43" r="4"/></g></svg>

<svg height="110" width="110" xmlns="http://www.w3.org/2000/svg"><circle cx="55" cy="55" fill="#25b7d3" r="55"/><path d="M39 67a4 4 0 0 0 4 4h24l12 12V71h4a4 4 0 0 0 4-4V35a4 4 0 0 0-4-4H43a4 4 0 0 0-4 4z" fill="#6fdaf1"/><path d="M71 59a4 4 0 0 1-4 4H43L31 75V63h-4a4 4 0 0 1-4-4V27a4 4 0 0 1 4-4h40a4 4 0 0 1 4 4z" fill="#f0f1f1"/><path d="M70.335 24.798A3.99 3.99 0 0 0 67 23H27a4 4 0 0 0-4 4v32a4 4 0 0 0 4 4h4v1.134z" fill="#fff"/><g fill="#21b2d1"><circle cx="35" cy="43" r="4"/><circle cx="47" cy="43" r="4"/><circle cx="59" cy="43" r="4"/></g></svg>
